!!!!SEGMENT: pl-kk--kk-i-346--003_anonim-alleluja.krn
!!!id: 17xx:2161
!!!COM: Anonim
!!!OTL: Alleluja
!!!PDT:
!!!SMS-siglum: PL-Kk
!!!SMS-shelfmark: Kk.I.346
!!!NIFC-rismID: 1001145578
!!!URL-scan: http://repozytorium.nifc.pl/skany/pl-kk-nut--i-346
!!!ONB-nifc: UWAGA: utwory w zbiorze: 1. Rorate caeli, 2. Tollite portas, 3. Alleluja, 4. Ave Maria
!!!SMS-variant:
!!!SMS-altvar:
**kern	**text	**kern	**text	**kern	**text	**kern	**text	**text
*part4	*part4	*part3	*part3	*part2	*part2	*part1	*part1	*part1
*staff4	*staff4	*staff3	*staff3	*staff2	*staff2	*staff1	*staff1	*staff1
*group1	*	*group1	*	*group1	*	*group1	*	*
*I"Baſsus.	*	*I"Tenor 2d(us)	*	*I"Tenor Primus	*	*I"Altus	*	*
*I'B	*	*I'T II	*	*I'T I	*	*I'A	*	*
*clefF4	*	*clefC4	*	*clefC4	*	*clefC3	*	*
*k[b-]	*	*k[b-]	*	*k[b-]	*	*k[b-]	*	*
*M3/2	*	*M3/2	*	*M3/2	*	*M3/2	*	*
=1	=1	=1	=1	=1	=1	=1	=1	=1
!LO:TX:a:t=â Nativitate \nad Purificationem.	!	!LO:TX:a:t=A Nativitate \nad Purificationem.	!	!LO:TX:a:t=â Nativitate \nad Purificationem.	!	!LO:TX:a:t=A Nativitate \nad Purificationem	!	!
[1.F	Al-	1c	AL-	4A/	AL-	4f\	Al-	.
.	.	.	.	4G/	.	4e\	.	.
.	.	.	.	4A/	.	4f\	.	.
.	.	.	.	4B-\	.	4g\	.	.
*	*	*	*	*	*	*2\right	*	*
.	.	2A/	.	2A/	.	2f\	.	.
=2	=2	=2	=2	=2	=2	=2	=2	=2
1.F]	.	1F	.	4A/	.	4f\	.	.
.	.	.	.	4G/	.	4e\	.	.
.	.	.	.	4A/	.	4f\	.	.
.	.	.	.	4B-\	.	4g\	.	.
.	.	2A/	.	2A/	.	2f\	.	.
=3	=3	=3	=3	=3	=3	=3	=3	=3
1F	-le-	1c	-le-	1A	-le-	1f	-le-	.
*	*	*2\right	*	*2\right	*	*	*	*
2BB-/	-lu-	2d\	-lu-	2B-\	-lu-	2f\	-lu-	.
!	!	!	!	!LO:LB:g=original	!	!	!	!
=4	=4	=4-	=4-	=4	=4	=4	=4	=4
1.F	-ja	1c	-ja	4A/	-ja	4f\	-ja	.
.	.	.	.	4G/	.	4e\	.	.
.	.	.	.	4A/	.	4f\	.	.
.	.	.	.	4B-\	.	4g\	.	.
.	.	2r	.	4A\	.	2f\	.	.
.	.	.	.	4B-\	.	.	.	.
=5	=5	=5	=5	=5	=5	=5	=5	=5
1FF	al-	1c	al-	1A	al-	1f	al-	.
2GG/	.	2B-\	.	2G/	.	2B-/	.	.
=6-	=6-	=6	=6	=6	=6	=6-	=6-	=6
1AA	-le-	1A	.	1F	.	4f\	.	.
.	.	.	.	.	.	4e\	.	.
.	.	.	.	.	.	4f\	.	.
.	.	.	.	.	.	4g\	.	.
2FF/	.	2c\	.	2A/	.	2f\	.	.
=7	=7	=7-	=7-	=7	=7	=7	=7	=7
1BB-	.	1B-	-le-	(2G/	-le-	1f	-le-	.
.	.	.	.	2d\)	.	.	.	.
2C/	-lu-	2G/	-lu-	2c\	-lu-	2e\	-lu-	.
=8-	=8-	=8	=8	=8	=8	=8-	=8-	=8
1FF,<	-ja!	1A,<	-ja.	1A,<	-ja	1f	-ia	.
*2\right	*	*	*	*	*	*	*	*
!	!	!	!	!	!	!LO:LB:g=original	!	!
2F\	Post	2c\	Post	2A/	Post	2f\	Post	.
=9	=9	=9	=9	=9	=9	=9	=9	=9
1B-	par-	1d	par-	1B-	par-	1f	par-	.
2G\	-tum	2en\	-tum	2B-\	-tum	2g\	-tum	.
=10	=10	=10	=10	=10	=10	=10	=10	=10
1F	Vir-	1f	Vir-	1c	Vir-	1a	Vir-	.
2F\	-go	2f\	-go	2c\	-go	2a\	-go	.
!LO:LB:g=original	!	!LO:LB:g=original	!	!	!	!	!	!
=11-	=11-	=11-	=11-	=11	=11	=11	=11	=11
2F\	in-	2f\	in-	2c\	in-	2a\	in-	.
2A\	-vi-	2f\	-vi-	2c\	-vi-	2a\	-vi-	.
2F\	-o-	2f\	-o-	2c\	-o-	2a\	-o-	.
=12	=12	=12-	=12-	=12	=12	=12	=12	=12
2c\	-la-	2.en\	-la-	2.c\	-la-	2.g\	-la-	.
2C/	-ta	.	.	.	.	.	.	.
!	!	!LO:TX:a:t=d	!	!	!	!	!	!
.	.	4d\	-ta	4c\	-ta	4f\	-ta	.
2E\	per-	2c\	per-	2c\	per-	2e\	per-	.
!	!	!	!	!LO:LB:g=original	!	!	!	!
=13	=13	=13	=13	=13	=13	=13	=13	=13
2F\	-man-	2d\	-man-	2c\	-man-	2a\	-man-	.
1G	-ſi-	1d	si-	(2c\	ſi-	(2d\	ſi-	.
.	.	.	.	2Bn\)	.	2g\)	.	.
=14-	=14-	=14	=14	=14	=14	=14	=14	=14
1.C	-sti	1.c	-sti	2c\	-sti	1.e	-sti	.
.	.	.	.	2c\	De-	.	.	.
.	.	.	.	2c\	-i	.	.	.
=15	=15	=15	=15	=15	=15	=15	=15	=15
1F	De-	1c	De-	2.A/	Ge-	1f	De-	.
.	.	.	.	4A/	-ni-	.	.	.
2F\	-i	2c\	-i	2A/	-trix	2f\	-i	.
=16-	=16-	=16	=16	=16	=16	=16	=16	=16
2.F\	Ge-	2.c\	Ge-	2.A/	Ge-	2.f\	Ge-	.
4F\	-ni-	4c\	-ni-	4A/	-ni-	4f\	-ni-	.
!	!	!	!	!	!	!LO:TX:a:t=f	!	!
2BB-/	-trix	2d\	-trix	2B-\	-trix	2f\	-trix	.
=17	=17	=17	=17	=17	=17	=17	=17	=17
1FF	in-	1c	in-	1A	in-	1f	in-	.
2GG/	-ter-	2B-\	-ter-	2G/	-ter-	2B-/	-ter-	.
!	!	!	!	!	!	!LO:LB:g=original	!	!
=18-	=18-	=18	=18	=18	=18	=18	=18	=18
2AA/	-ce-	2A/	-ce-	2c\	-ce-	2.f\	-ce-	.
2AA/	-de	2A/	-de	2c\	-de	.	.	.
.	.	.	.	.	.	4f\	-de	.
2D/	pro	2A/	pro	1d	pro	1f	pro	.
=19	=19	=19	=19	=19-	=19-	=19-	=19-	=19-
2BB-/	no-	1.G	no-	.	.	.	.	.
1C	.	.	.	(2.c\	no-	2f\	no-	.
.	.	.	.	.	.	2e\	.	.
!	!	!	!	!LO:TX:t=P:problem:brak kreski taktowej	!	!	!	!
.	.	.	.	4B-\)	.	.	.	.
!LO:LB:g=original	!	!	!	!	!	!	!	!
=20-	=20-	=20	=20	=20	=20	=20	=20	=20
!	!	!	!	!	!	!LO:TX:a:t=Solo	!	!
2FF/	-bis	1.F	bis	1.A	-bis.	2f\	-bis	.
2rGG	.	.	.	.	.	2f\	De-	[[Ae-
2rGG	.	.	.	.	.	2f\	-i	-ter-
!	!	!LO:LB:g=original	!	!LO:PB:g=original	!	!	!	!
=21	=21	=21-	=21-	=21	=21	=21	=21	=21
1F	De-	1.r	.	2rc	.	2.f\	Ge-	-nae]]
.	.	.	.	2c\	De-	.	.	.
.	.	.	.	.	.	4f\	-ni-	.
2E\	-i	.	.	2c\	-i	2g\	-trix	.
=22-	=22-	=22	=22	=22	=22	=22	=22	=22
2.F\	Ge-	1c	De-	2.c\	Ge-	1f	in-	.
4F\	-ni-	.	.	4B-\	-ni-	.	.	.
2C/	-trix	2c\	-i	2A/	-trix	2e\	-ter-	.
=23	=23	=23	=23	=23-	=23-	=23	=23	=23
1F	in-	2.c\	Ge-	2.A/	Ge-	1f	-ce-	.
.	.	4c\	-ni-	4A/	-ni-	.	.	.
2BB-/	-ter-	2d\	-trix	2B-\	-trix	2f\	-de	.
=24-	=24-	=24	=24	=24	=24	=24	=24	=24
2F\	-ce-	1c	in	1A	in	1f	in-	.
2FF/	-de	.	.	.	.	.	.	.
2GG/	pro	2B-\	-ter-	2G/	-ter-	2b-\	-ter-	.
=25	=25	=25	=25	=25	=25	=25-	=25-	=25
1AA	no-	2A/	-ce-	2c\	-ce-	2f\	-ce-	.
.	.	2A/	-de	2c\	-de	2f\	-de	.
!	!	!	!	!LO:TX:t=P:problem:brak kreski taktowej	!	!	!	!
2D/	.	2A/	pro	1d	pro	1f	pro	.
=26-	=26-	=26	=26	=26-	=26-	=26-	=26-	=26
2BB-/	.	1.G	no-	.	.	.	.	.
1C	.	.	.	2.c\	no-	2f\	no-	.
.	.	.	.	.	.	2e\	.	.
.	.	.	.	4B-\	.	.	.	.
!	!	!	!	!	!	!LO:PB:g=original	!	!
=27	=27	=27	=27	=27	=27	=27	=27	=27
1FF	-bis	1F	-bis.	1A,<	-bis	1f	-bis	.
2F\	Al-	2A/	Al-	2A/	Al-	2f\	al-	.
=28	=28	=28	=28	=28	=28	=28	=28	=28
1F	-le-	1c	-le-	4A/	-le-	4f\	-le-	.
.	.	.	.	4G/	.	4e\	.	.
.	.	.	.	4A/	.	4f\	.	.
.	.	.	.	4B-\	.	4g\	.	.
2F\	-lu-	2A/	-lu-	4A\	.	4f\	.	.
.	.	.	.	4B-\	.	4g\	.	.
=29	=29	=29-	=29-	=29	=29	=29	=29	=29
1.F	-ja	2.F/	-ja	2.c\	.	2.a\	.	.
.	.	4G/	.	4B-\	.	4g\	.	.
.	.	2A/	.	4A\	.	2f\	.	.
.	.	.	.	4B-\	.	.	.	.
!LO:LB:g=original	!	!	!	!LO:LB:g=original	!	!	!	!
=30-	=30-	=30	=30	=30	=30	=30	=30	=30
1C	al-	2.G/	al-	1c	.	2.e\	.	.
.	.	4A/	.	.	.	4f\	.	.
2GG/	.	2B-\	.	2d\	.	2g\	.	.
!	!	!LO:LB:g=original	!	!	!	!	!	!
=31	=31	=31-	=31-	=31	=31	=31	=31	=31
2AA/	-le-	2A/	-le-	2c\	.	1f	.	.
2BB-/	.	1G	-lu-	2d\	.	.	.	.
2C/	-lu-	.	.	2c\	-lu-	2e\	-lu-	.
=32	=32	=32	=32	=32	=32	=32	=32	=32
!	!	!LO:TX:a:t=4	!	!	!	!	!	!
2FF/	-ja	[1.Fl	-ja	2A,<\	-ja	2f\	-ja	.
2BB-/	al-	.	.	2B-\	al-	2d\	al-	.
2FF/	-le-	.	.	2c\	-le-	2f\	-le-	.
=33	=33	=33	=33	=33	=33	=33-	=33-	=33
1.BB-	-lu-	1.F_	.	1.B-	-lu-	1.d	-lu-	.
=34	=34	=34	=34	=34	=34	=34	=34	=34
[1.FFl;;	-ja	1.F_	.	[1.cl;;	-ja.	[1.fl;;	-ja.	.
=35	=35	=35	=35	=35	=35	=35	=35	=35
1.FF]	.	1.F]	.	1.c]	.	1.f]	.	.
==	==	==	==	==	==	==	==	==
*-	*-	*-	*-	*-	*-	*-	*-	*-
!!!system-decoration: [g1]
!!!RDF**kern: > = above
!!!RDF**kern: < = below
!!!RDF**kern: l = terminal long
!!!ENC: Tomasz Grochalski
!!!END: 2021-03-23
!!!ENC: Andrzej Kubiczek
!!!END: 2021-03-25
